src/lib/packages/icons/src/assets/filled/comment-plus.svg

<svg width="24" height="24" viewBox="0 0 24 24" fill="none" xmlns="http://www.w3.org/2000/svg">
<path d="M21 12.001C21 12.342 20.98 12.667 20.947 12.985C20.918 13.215 20.7 13.293 20.574 13.252C19.819 13.004 18.9911 12.932 18.1311 13.074C15.7591 13.465 13.993 15.616 14 18.02C14.002 18.514 14.073 18.988 14.209 19.439C14.261 19.613 14.1641 19.797 13.9851 19.83C13.3461 19.946 12.68 20.004 11.999 20.004C10.719 20.004 9.50894 19.804 8.40894 19.424C7.06894 20.854 4.87898 21.044 3.45898 20.994C3.02898 20.984 2.83895 20.4341 3.16895 20.1541C4.25895 19.2741 4.79897 18.174 4.94897 17.213C3.72897 15.893 2.99902 14.123 2.99902 12.002C2.99902 7.00095 7.02902 4.00098 11.999 4.00098C16.969 4.00098 21 6.99998 21 12.001ZM21 16.75H19.25V15C19.25 14.586 18.914 14.25 18.5 14.25C18.086 14.25 17.75 14.586 17.75 15V16.75H16C15.586 16.75 15.25 17.086 15.25 17.5C15.25 17.914 15.586 18.25 16 18.25H17.75V20C17.75 20.414 18.086 20.75 18.5 20.75C18.914 20.75 19.25 20.414 19.25 20V18.25H21C21.414 18.25 21.75 17.914 21.75 17.5C21.75 17.086 21.414 16.75 21 16.75Z" fill="currentColor"/>
</svg>

<svg xmlns="http://www.w3.org/2000/svg" width="24" height="24" fill="none"><path fill="currentColor" d="M21 12.001c0 .341-.02.666-.053.984a.303.303 0 0 1-.373.267 5.114 5.114 0 0 0-2.443-.178c-2.372.391-4.138 2.542-4.131 4.946.002.494.073.968.209 1.419.052.174-.045.358-.224.391-.639.116-1.305.174-1.986.174-1.28 0-2.49-.2-3.59-.58-1.34 1.43-3.53 1.62-4.95 1.57-.43-.01-.62-.56-.29-.84 1.09-.88 1.63-1.98 1.78-2.941-1.22-1.32-1.95-3.09-1.95-5.211 0-5.001 4.03-8.001 9-8.001S21 7 21 12.001Zm0 4.749h-1.75V15a.75.75 0 0 0-1.5 0v1.75H16a.75.75 0 0 0 0 1.5h1.75V20a.75.75 0 0 0 1.5 0v-1.75H21a.75.75 0 0 0 0-1.5Z"/></svg>
